X:2815
T:Josskvarnleken - Malung Longdance
A:Dalarna
M:3/4
N:with the words ... trad (Lancaster)
O:Sweden
R:Lngdans
Z:Richard Robinson 
%%TUNEURL: http://www.leeds.ac.uk/music/Info/RRTuneBk/gettune/00000c39.html
%%ID:00000c39
K:A
a3b ag   | a2 g2 eg | g2 f2 d2 | e2 c2 A2 | A4 A2   |
a3b ag   | a2 g2 eg | g2 f2 d2 |1 e4 e2   | e4 e2   :|2 e4 e2   | e3d cd  |:
%
e2    ef       ed     | c2   A2 A2  | \
